X: 1820
T: Railway Hotel Waltz
B: australian traditional tunes wiki
M:3/4
L:1/8
R: Waltz
Q: 1/4=100
K:Em
V:1 
"Em"B4cB|"A"A4BA|"C"G4AG|"D"F6|"G"G3GG2|"A"A3B"Em"c2|"Bm"B6-|B6|
"Em"B4cB|"Bm"A4BA|"C"G4AG|"D"F6|"G"G4G2|"D"F4ED|"C"E6-|E6||
"Em"B4cB|"A"A4BA|"C"G4AG|"D"F6|"C"G3GG2|"A"A2B2c2|"Em"B6-|B6|
"Em"B4cB|"A"A4BA|"C"G4AG|"D"F6|"C"G4AG|"Bm"F4ED|"Em"E6-|E6||
"G"B3BB2|B3BB2|"D"A3GFG|A3FGA|"Em"B3cB2|B2A2G2|"C"E6|"D"D6|
"G/Em"G4G2|"Bm/D"F4F2|"Em/C"E2G2E2|"D"D4D2|"G"G4B2|"D"c2B2A2|"G"G6-|G4z2|
"Bm"B3BB2|B3BB2|"A7"A3GFG|A3FGA|"Em"B3cB2|B2A2G2|"A7"E6|"D"D6|
"G"G4G2|"D"F4F2|"Em"E2G2"(A)"E2|"D"D4D2|"G"G4B2|"D"A2G2F2|"Em"[E6B,6]||
% abcbook-tune_id 6342d53a8210aab86eeec925


% abcbook-boost 0
% abcbook-tablature 
% abcbook-transpose 
% abcbook-lastupdated 1665324385993
% abcbook-soundfonts 
% abcbook-repeats 1
% NFF Book 2008

